ornament.svg

<svg fill="currentColor" viewBox="0 0 24 24"><path d="M12 1a3 3 0 0 1 3 3v1a1 1 0 0 1 1 1v1.07c2.39 1.38 4 3.97 4 6.93a8 8 0 0 1-8 8 8 8 0 0 1-8-8c0-2.96 1.61-5.55 4-6.93V6a1 1 0 0 1 1-1V4a3 3 0 0 1 3-3m0 2a1 1 0 0 0-1 1v1h2V4a1 1 0 0 0-1-1m0 5c-1.78 0-3.37.77-4.47 2h8.94c-1.1-1.23-2.69-2-4.47-2m-5.66 8h1.25L6 14.43c.05.57.17 1.07.34 1.57m6.25 0-4-4H6.41l4 4zm5.07-4h-1.25L18 13.57c-.05-.57-.17-1.07-.34-1.57m-6.25 0 4 4h2.18l-4-4zm.59 8c1.78 0 3.37-.77 4.47-2H7.53c1.1 1.23 2.69 2 4.47 2"/></svg>

<svg  viewBox="0 0 24 24" fill="currentColor"><path  d="M12,1A3,3 0 0,1 15,4V5A1,1 0 0,1 16,6V7.07C18.39,8.45 20,11.04 20,14A8,8 0 0,1 12,22A8,8 0 0,1 4,14C4,11.04 5.61,8.45 8,7.07V6A1,1 0 0,1 9,5V4A3,3 0 0,1 12,1M12,3A1,1 0 0,0 11,4V5H13V4A1,1 0 0,0 12,3M12,8C10.22,8 8.63,8.77 7.53,10H16.47C15.37,8.77 13.78,8 12,8M6.34,16H7.59L6,14.43C6.05,15 6.17,15.5 6.34,16M12.59,16L8.59,12H6.41L10.41,16H12.59M17.66,12H16.41L18,13.57C17.95,13 17.83,12.5 17.66,12M11.41,12L15.41,16H17.59L13.59,12H11.41M12,20C13.78,20 15.37,19.23 16.47,18H7.53C8.63,19.23 10.22,20 12,20Z"/></svg>
